public/icon/svg/PostgreSQL.svg

<?xml version="1.0" encoding="UTF-8"?>
<svg width="1024px" height="1024px" viewBox="0 0 1024 1024" version="1.1" xmlns="http://www.w3.org/2000/svg" xmlns:xlink="http://www.w3.org/1999/xlink">
    <title>PostgreSQL</title>
    <g id="ICON-新版方图标" stroke="none" stroke-width="1" fill="none" fill-rule="evenodd">
        <g id="PostgreSQL">
            <rect id="蒙版路径" fill="#00628C" x="0" y="0" width="1024" height="1024"></rect>
            <path d="M850.551429,567.484263 C839.056222,557.632422 824.276671,555.990449 809.497118,560.91637 C798.001912,564.200317 784.864533,565.84229 773.369326,565.84229 C806.212774,511.657163 830.845359,452.546117 847.267084,390.151124 C855.477945,362.237575 860.404463,332.682052 860.404463,301.484554 C863.688808,276.854952 857.120118,252.225349 842.340566,232.521667 C801.286257,179.978515 737.241534,150.422992 671.554638,152.064965 L666.62812,152.064965 C638.71119,152.064965 610.794259,156.990886 584.519501,163.55878 L582.877328,163.55878 C566.455604,160.274832 548.391708,158.632859 531.969985,158.632859 C500.768709,156.990885 467.925261,165.200753 440.008331,181.620488 C400.596193,166.842727 356.257539,160.274832 313.561057,161.916806 C274.148919,161.916806 234.736782,178.336541 206.819851,206.250091 C177.260748,237.447587 162.481197,285.064819 164.123369,352.385733 C167.407714,381.941257 172.334231,411.49678 178.90292,439.410329 C188.755955,482.10164 200.251162,523.150979 215.030713,564.200316 C226.52592,601.965707 246.231989,638.089124 272.506747,667.644648 C285.644126,680.780436 303.708022,688.990304 323.414091,690.632277 C338.193642,690.632277 351.331021,684.064382 362.826228,674.212542 C372.679262,685.706356 385.816642,692.274251 400.596193,695.558197 C420.302262,700.484118 440.008331,702.126092 459.714399,698.842144 C469.567433,697.200171 477.778296,693.916224 485.989158,690.632277 C485.989158,700.484117 485.989158,710.335959 487.63133,720.1878 C485.989158,749.743323 490.915675,777.656873 499.126537,805.570423 C502.410882,821.990158 510.621743,836.767919 522.11695,849.903707 C545.107364,871.249363 576.308639,879.45923 605.867742,872.891337 C637.069017,867.965416 666.62812,851.545681 684.692017,826.916078 C706.040258,797.360555 715.893292,753.027271 717.535465,682.422409 C717.535465,679.138462 719.177637,675.854515 719.177637,672.570569 L724.104155,672.570569 C752.021085,674.212542 779.938016,669.286621 804.570601,659.43478 C824.27667,651.224913 842.340566,638.089124 855.477945,620.027416 C858.76229,613.459522 862.046635,606.891628 863.688808,600.323734 C865.33098,587.187946 860.404463,575.694131 850.551429,567.484263 L850.551429,567.484263 Z" id="形状" fill="#000000" fill-rule="nonzero"></path>
            <path d="M840.698394,605.249654 C829.203187,620.027416 816.065808,629.879257 798.001912,636.447151 C778.295843,644.657018 756.947602,647.940965 735.599361,647.940965 C725.746327,647.940965 715.893292,646.298992 706.040258,644.657018 C701.113741,685.706356 697.829397,726.755694 689.618534,767.805032 C687.976362,787.508715 678.123328,807.212397 664.985948,823.632131 C648.564224,838.409893 628.858155,848.261734 607.509915,849.903707 C582.877329,856.471602 558.244743,851.545681 538.538674,836.767919 C527.043467,826.916078 518.832605,812.138317 512.263916,797.360555 C508.979571,787.508715 507.337398,779.298847 505.695226,769.447005 C504.053054,754.669244 502.410881,739.891482 502.410882,726.755694 C500.768709,700.484118 500.768709,675.854515 500.768709,651.224913 C487.63133,662.718727 471.209606,670.928595 454.787882,674.212542 C438.366159,677.496489 420.302262,675.854516 403.880538,670.928595 C398.954021,669.286621 394.027504,667.644648 389.100987,664.360701 C382.532297,662.718727 379.247953,657.792806 375.963608,652.866886 C374.321435,649.582939 372.679263,644.657019 374.321435,641.373072 C375.963608,638.089125 377.60578,633.163205 380.890124,631.52123 C389.100986,626.59531 397.311848,623.311363 407.164883,621.669389 C418.66009,620.027416 430.155297,616.743469 441.650503,611.817548 C448.219193,606.891627 453.145709,600.323734 458.072227,593.75584 L458.072227,592.113866 C443.292675,592.113866 430.155296,587.187946 417.017917,582.262025 C412.0914,587.187946 390.743159,610.175574 361.184056,644.657018 C351.331022,657.792806 338.193642,666.002674 321.771918,667.644648 C306.992367,667.644648 293.854988,661.076753 284.001953,651.224913 C259.369368,623.311363 242.947644,590.471893 231.452437,555.990449 C218.315058,513.299138 206.819852,472.2498 198.608989,431.200462 C192.040299,403.286912 187.113783,377.015336 183.829438,349.101786 C180.545093,286.706793 195.324644,245.657455 219.95723,219.385879 C244.589815,194.756276 277.433263,181.620488 313.561057,179.978515 C357.899711,178.336541 402.238366,186.546409 443.292675,202.966143 C469.567433,186.546408 499.126536,178.336541 530.327812,178.336541 C546.749536,178.336541 564.813433,181.620488 581.235157,184.904435 C587.803846,181.620488 596.014708,179.978515 604.22557,178.336541 C625.573811,173.41062 645.279879,171.768647 666.62812,170.126673 C729.030671,168.4847 788.148877,194.756276 827.561015,244.015482 C837.414049,260.435217 842.340566,281.780873 840.698394,301.484554 C839.056221,329.398104 834.129704,357.311653 827.561015,385.225204 C809.497118,454.188091 779.938016,519.867031 740.525878,580.620051 C742.16805,582.262025 743.810223,582.262025 745.452395,583.903998 C768.442809,588.829919 791.433222,588.829919 814.423636,582.262025 C822.634497,578.978078 832.487532,580.620051 840.698394,583.903998 C843.982739,587.187946 847.267084,592.113866 847.267084,597.039786 C842.340566,597.039786 842.340566,601.965707 840.698394,605.249654 L840.698394,605.249654 Z" id="路径" fill="#FFFFFF" fill-rule="nonzero"></path>
            <path d="M667.805722,191.250096 L662.874598,191.250096 C646.43752,191.250096 628.356733,192.892326 611.919656,197.819015 C644.793813,212.599083 674.380554,237.23253 697.392463,265.150435 C710.542126,283.214963 722.04808,301.27949 731.910328,322.628477 C735.197744,330.839626 738.48516,337.408545 740.128867,342.335235 C740.128867,345.619694 741.772575,347.261924 741.772575,350.546383 L741.772575,355.473073 C743.416283,381.748749 735.197743,398.171046 735.197744,424.446722 C735.197744,442.51125 740.128867,463.860237 740.128867,486.851453 C743.416283,511.4849 736.841451,536.118347 723.691789,555.825104 C725.335497,557.467334 726.979205,559.109564 726.979204,560.751793 C761.497069,504.915982 789.440102,444.15348 805.877181,380.106519 C812.452012,353.830843 817.383135,327.555166 817.383136,301.27949 C819.026844,286.499422 815.739428,271.719354 809.164596,256.939287 C776.290439,212.599083 723.691788,189.607866 667.805722,191.250096 L667.805722,191.250096 Z" id="路径" fill="#326790" fill-rule="nonzero"></path>
            <path d="M526.146114,197.370869 C496.613606,195.728517 468.721792,205.582628 447.392758,223.648499 C427.704419,240.072017 414.57886,263.064943 404.73469,286.057869 C396.531216,309.050795 391.609131,333.686073 389.968436,358.321351 C403.093995,351.751943 416.219555,346.824888 430.985809,343.540183 C445.752063,340.25548 462.159012,340.25548 476.925266,345.182535 C493.332216,351.751943 504.81708,366.53311 508.09847,384.59898 C529.427504,481.497739 501.53569,517.62948 491.691521,547.191814 C486.769436,557.045924 483.488046,566.900036 481.847351,576.754147 C483.488046,576.754147 485.128741,576.754147 486.769436,575.111795 C491.691521,575.111795 498.254301,576.754147 503.176385,578.396499 C513.020554,583.323555 521.224029,591.535313 524.505419,603.031776 C526.146114,606.31648 526.146114,609.601184 526.146114,611.243535 L526.146114,616.170591 C524.505419,653.944684 524.505419,691.718776 526.146114,729.492869 C526.146114,744.274035 527.786809,757.41285 529.427504,772.194017 C529.427504,780.405776 531.068199,786.975183 534.349588,795.186943 C537.630978,806.683406 544.193757,816.537517 554.037927,824.749276 C563.882097,832.961035 578.648351,837.888091 604.89947,832.961035 C621.306419,831.318683 637.713368,823.106924 650.838927,811.610461 C660.683097,798.471647 667.245877,783.69048 668.886572,767.266962 C675.449352,736.062276 685.293521,644.090573 686.934216,627.667054 C686.934216,617.812943 688.574911,606.316479 693.496995,598.10472 C696.778385,591.535313 703.341164,586.608258 709.903944,583.323554 C713.185334,581.681202 714.826029,581.681202 718.107419,580.03885 C714.826029,576.754146 713.185334,573.469442 709.903944,570.184739 C701.70047,560.330628 695.13769,548.834165 690.215606,537.337702 C686.934216,532.410646 685.293521,527.483591 682.012131,522.556535 C677.090046,514.344777 673.808657,506.133017 667.245877,496.278906 C655.761012,474.928332 645.916842,451.935406 639.354063,427.300128 C632.791283,402.664851 631.150589,379.671924 647.557537,361.606054 C660.683097,346.824887 685.293521,338.613128 721.388809,343.540183 C719.748114,340.25548 719.748114,336.970776 718.107419,333.686073 C711.544639,313.97785 700.059775,295.91198 686.934216,281.130813 C650.838927,231.860258 593.414606,203.940276 532.708894,202.297924 L526.146114,197.370869 L526.146114,197.370869 Z" id="路径" fill="#326790" fill-rule="nonzero"></path>
            <path d="M326.662443,200.2066 L315.178883,200.2066 C285.649728,200.2066 256.120574,211.691719 236.43447,233.021227 C215.107859,254.350734 200.343281,290.446823 203.624299,351.153883 C206.905317,377.405584 211.826842,403.657286 216.748368,429.908987 C224.95091,470.92727 236.434471,510.304823 251.199048,549.682375 C261.0421,582.497002 277.447186,612.030166 298.773797,638.281868 C303.695323,644.844793 311.897865,648.126255 321.740917,648.126255 C331.583969,646.485524 339.786512,641.56333 346.348546,633.359673 C364.394141,612.030166 382.439735,590.700659 400.48533,572.652614 C372.596684,549.682375 359.472615,513.586286 366.034649,477.490196 C367.675158,457.80142 369.315667,438.112644 369.315667,416.783137 C369.315667,400.375823 367.675158,390.531435 367.675158,383.96851 L367.675158,382.327778 C367.675158,347.87242 374.237193,313.417062 385.720752,280.602435 C393.923295,257.632196 407.047364,236.302689 425.092958,218.254644 C397.204312,208.410256 367.675158,203.488062 338.146003,201.84733 C333.224477,200.2066 329.943461,200.2066 326.662443,200.2066 L326.662443,200.2066 Z M713.82247,423.346061 C715.462979,397.09436 720.384505,380.687047 720.384505,362.639002 C712.181962,360.998271 705.619928,360.998271 697.417384,360.998271 C684.293316,359.357539 671.169247,364.279733 659.685687,372.48339 C651.483145,380.687047 651.483145,398.735092 654.764161,420.064599 C661.326196,443.034838 669.528739,464.364345 681.012299,484.053122 C685.933824,493.897509 690.85535,502.101167 694.136367,510.304823 C697.417384,515.227017 700.698402,521.789942 702.33891,526.712136 C703.979419,529.993599 705.619928,534.915793 708.900944,536.556524 C715.462979,520.149211 718.743996,503.741897 717.103488,487.334584 C718.743996,467.645808 713.82247,444.675569 713.82247,423.346061 L713.82247,423.346061 Z M702.33891,374.124122 C702.33891,375.764853 702.33891,377.405585 700.698402,379.046315 C699.057893,380.687047 699.057893,382.327778 697.417384,383.96851 C694.136367,387.249972 689.214842,388.890704 685.933824,390.531435 C681.012299,390.531435 677.731282,390.531435 674.450265,387.249972 C672.809756,385.609241 671.169247,385.609241 669.528739,383.96851 C667.88823,383.96851 667.88823,382.327778 667.88823,380.687047 C667.88823,379.046315 667.88823,377.405584 669.528739,375.764853 L672.809756,372.48339 C677.731282,369.201928 684.293316,367.561196 689.214842,367.561196 L697.417384,367.561196 C699.057893,367.561196 700.698402,369.201928 702.33891,369.201928 L702.33891,374.124122 Z" id="形状" fill="#326790" fill-rule="nonzero"></path>
            <path d="M486.824408,388.79011 C485.18275,377.303998 478.616118,367.458758 467.12451,362.536139 C462.199535,360.895265 457.274561,360.895265 452.349586,360.895265 C445.782953,360.895265 440.857979,362.536139 434.291346,362.536139 C422.799739,365.817885 411.308131,370.740504 399.816524,375.663124 C396.533207,377.303997 393.249891,380.585744 389.966575,383.86749 C389.966575,388.79011 391.608233,398.635349 391.608233,413.403207 C391.608233,434.734559 391.608233,456.065909 388.324917,475.756388 C380.116626,520.059963 409.666474,561.081793 453.991245,569.286158 C457.274561,569.286158 458.916219,569.286158 462.199535,570.927031 C465.482852,561.081793 470.407826,549.59568 472.049484,538.109568 C481.899433,508.573851 506.524306,483.960753 486.824408,388.79011 L486.824408,388.79011 Z M475.332801,390.430983 L470.407826,395.353602 C467.12451,398.635349 462.199536,400.276222 457.27456,398.635349 C452.349586,396.994475 449.06627,395.353602 445.782953,390.430983 C444.141295,388.79011 442.499637,387.149237 442.499637,385.508363 C439.216321,382.226617 439.216321,380.585744 439.216321,378.94487 C439.216321,375.663124 442.499637,374.022251 445.782953,372.381378 C449.06627,370.740505 452.349586,370.740505 453.991245,370.740505 L458.916219,370.740505 C463.841193,370.740505 467.124509,372.381378 470.407826,375.663124 C472.049485,377.303997 473.691143,377.303997 475.332801,378.94487 C476.974459,380.585744 476.974459,382.226617 476.974459,385.508363 C475.332801,387.149237 475.332801,388.79011 475.332801,390.430983 L475.332801,390.430983 Z M726.506504,593.899256 C723.223187,595.540129 719.93987,595.540129 716.656555,595.540129 C713.373238,597.181003 711.73158,598.821876 708.448263,602.103622 C706.806605,608.667115 705.164948,615.230607 705.164948,621.7941 C706.806606,623.434973 708.448264,623.434973 710.089922,623.434973 C716.656555,625.075846 724.864845,626.71672 733.073137,626.71672 C752.773035,626.71672 770.831275,623.434973 788.889515,616.87148 C798.739464,611.94886 808.589413,607.026241 816.797704,598.821875 C774.114592,607.026241 752.773035,605.385368 737.998111,598.821875 C733.073137,597.181002 729.789821,595.540129 726.506504,593.899256 L726.506504,593.899256 Z M485.18275,597.181002 C483.541092,597.181002 480.257775,597.181002 476.974459,603.744495 C467.12451,615.230607 463.841193,623.434973 453.991245,629.998465 C440.857979,638.202831 427.724714,643.125451 411.308131,644.766324 C406.383156,644.766324 401.458182,646.407197 398.174866,649.688944 L399.816524,651.329817 C403.099841,652.97069 408.024815,654.611563 409.666473,656.252437 C422.799738,659.534183 437.574662,661.175056 452.349586,659.534182 C472.049485,656.252436 490.107725,644.766324 499.957674,628.357592 C503.24099,623.434972 503.24099,618.512353 499.957674,613.589734 C498.316016,608.667114 493.391041,603.744495 490.107724,602.103622 C490.107724,597.181002 486.824408,597.181002 485.18275,597.181002 L485.18275,597.181002 Z" id="形状" fill="#326790" fill-rule="nonzero"></path>
        </g>
    </g>
</svg>

<svg xmlns="http://www.w3.org/2000/svg" width="1024" height="1024"><g fill="none" fill-rule="evenodd"><path fill="#00628C" d="M0 0h1024v1024H0z"/><path fill="#000" fill-rule="nonzero" d="M850.551 567.484c-11.495-9.852-26.274-11.494-41.054-6.568-11.495 3.284-24.632 4.926-36.128 4.926 32.844-54.185 57.476-113.296 73.898-175.69 8.21-27.914 13.137-57.47 13.137-88.667 3.285-24.63-3.284-49.26-18.063-68.963-41.055-52.543-105.1-82.099-170.786-80.457h-4.927c-27.917 0-55.834 4.926-82.108 11.494h-1.643c-16.421-3.284-34.485-4.926-50.907-4.926-31.201-1.642-64.045 6.568-91.962 22.987-39.412-14.777-83.75-21.345-126.447-19.703-39.412 0-78.824 16.42-106.741 44.333-29.56 31.198-44.339 78.815-42.697 146.136 3.285 29.555 8.211 59.11 14.78 87.024 9.853 42.692 21.348 83.741 36.128 124.79 11.495 37.766 31.201 73.89 57.476 103.445 13.137 13.135 31.201 21.345 50.907 22.987 14.78 0 27.917-6.568 39.412-16.42 9.853 11.494 22.99 18.062 37.77 21.346 19.706 4.926 39.412 6.568 59.118 3.284 9.853-1.642 18.064-4.926 26.275-8.21 0 9.852 0 19.704 1.642 29.556-1.642 29.555 3.285 57.469 11.496 85.382 3.284 16.42 11.495 31.198 22.99 44.334 22.99 21.345 54.192 29.555 83.75 22.987 31.202-4.926 60.761-21.345 78.825-45.975 21.348-29.555 31.201-73.889 32.843-144.494 0-3.284 1.643-6.567 1.643-9.851h4.926c27.917 1.642 55.834-3.284 80.467-13.136 19.706-8.21 37.77-21.346 50.907-39.408 3.284-6.567 6.569-13.135 8.21-19.703 1.643-13.136-3.284-24.63-13.137-32.84"/><path fill="#FFF" fill-rule="nonzero" d="M840.698 605.25c-11.495 14.777-24.632 24.63-42.696 31.197-19.706 8.21-41.054 11.494-62.403 11.494-9.853 0-19.706-1.642-29.559-3.284-4.926 41.05-8.21 82.099-16.421 123.148-1.643 19.704-11.496 39.407-24.633 55.827-16.422 14.778-36.128 24.63-57.476 26.272-24.633 6.568-49.265 1.642-68.971-13.136-11.496-9.852-19.706-24.63-26.275-39.407-3.284-9.852-4.927-18.062-6.569-27.914-1.642-14.778-3.284-29.556-3.284-42.691-1.642-26.272-1.642-50.901-1.642-75.531-13.138 11.494-29.56 19.704-45.981 22.988-16.422 3.283-34.486 1.642-50.907-3.284-4.927-1.642-9.853-3.284-14.78-6.568-6.569-1.642-9.853-6.568-13.137-11.494-1.643-3.284-3.285-8.21-1.643-11.494 1.643-3.284 3.285-8.21 6.57-9.852 8.21-4.926 16.42-8.21 26.274-9.852 11.495-1.642 22.99-4.926 34.486-9.851 6.568-4.926 11.495-11.494 16.421-18.062v-1.642c-14.78 0-27.917-4.926-41.054-9.852-4.927 4.926-26.275 27.914-55.834 62.395-9.853 13.136-22.99 21.346-39.412 22.988-14.78 0-27.917-6.568-37.77-16.42-24.633-27.914-41.054-60.753-52.55-95.235-13.137-42.69-24.632-83.74-32.843-124.79-6.569-27.913-11.495-54.185-14.78-82.098-3.284-62.395 11.496-103.445 36.128-129.716 24.633-24.63 57.476-37.766 93.604-39.407 44.339-1.642 88.677 6.567 129.732 22.987 26.274-16.42 55.834-24.63 87.035-24.63 16.422 0 34.485 3.284 50.907 6.568 6.569-3.284 14.78-4.925 22.99-6.567 21.349-4.926 41.055-6.568 62.403-8.21 62.403-1.642 121.52 24.63 160.933 73.888 9.853 16.42 14.78 37.766 13.137 57.47-1.642 27.913-6.568 55.827-13.137 83.74-18.064 68.963-47.623 134.642-87.035 195.395 1.642 1.642 3.284 1.642 4.926 3.284 22.99 4.926 45.981 4.926 68.972-1.642 8.21-3.284 18.064-1.642 26.274 1.642 3.285 3.284 6.57 8.21 6.57 13.136-4.927 0-4.927 4.926-6.57 8.21"/><path fill="#326790" fill-rule="nonzero" d="M667.806 191.25h-4.931c-16.437 0-34.518 1.642-50.955 6.569 32.874 14.78 62.46 39.414 85.472 67.331 13.15 18.065 24.656 36.13 34.518 57.478 3.288 8.212 6.575 14.78 8.219 19.707 0 3.285 1.644 4.927 1.644 8.211v4.927c1.643 26.276-6.575 42.698-6.575 68.974 0 18.064 4.93 39.413 4.93 62.404 3.288 24.634-3.287 49.267-16.436 68.974 1.643 1.642 3.287 3.285 3.287 4.927 34.518-55.836 62.461-116.599 78.898-180.645 6.575-26.276 11.506-52.552 11.506-78.828 1.644-14.78-1.644-29.56-8.218-44.34-32.875-44.34-85.473-67.331-141.36-65.689"/><path fill="#326790" fill-rule="nonzero" d="M526.146 197.37c-29.532-1.641-57.424 8.213-78.753 26.278-19.689 16.424-32.814 39.417-42.658 62.41-8.204 22.993-13.126 47.628-14.767 72.263 13.126-6.57 26.252-11.496 41.018-14.78 14.766-3.286 31.173-3.286 45.94 1.642 16.406 6.569 27.891 21.35 31.172 39.416 21.33 96.899-6.562 133.03-16.406 162.593-4.923 9.854-8.204 19.708-9.845 29.562 1.641 0 3.282 0 4.922-1.642 4.923 0 11.485 1.642 16.407 3.284 9.845 4.928 18.048 13.14 21.33 24.636 1.64 3.284 1.64 6.57 1.64 8.212v4.927a1305.137 1305.137 0 0 0 0 113.322c0 14.781 1.64 27.92 3.282 42.701 0 8.212 1.64 14.781 4.922 22.993 3.281 11.496 9.844 21.35 19.688 29.562s24.61 13.14 50.861 8.212c16.407-1.642 32.814-9.854 45.94-21.35 9.844-13.14 16.407-27.92 18.048-44.344 6.562-31.205 16.407-123.176 18.047-139.6 0-9.854 1.64-21.35 6.563-29.562 3.281-6.57 9.844-11.497 16.407-14.781 3.281-1.643 4.922-1.643 8.203-3.285-3.281-3.285-4.922-6.57-8.203-9.854-8.204-9.854-14.766-21.35-19.688-32.847-3.282-4.927-4.922-9.854-8.204-14.781-4.922-8.212-8.203-16.424-14.766-26.278-11.485-21.35-21.33-44.344-27.892-68.979-6.563-24.635-8.203-47.628 8.204-65.694 13.125-14.781 37.736-22.993 73.83-18.066-1.64-3.285-1.64-6.57-3.28-9.854-6.563-19.708-18.048-37.774-31.174-52.555-36.095-49.27-93.52-77.19-154.225-78.833l-6.563-4.927"/><path fill="#326790" fill-rule="nonzero" d="M326.662 200.207H315.18c-29.53 0-59.058 11.485-78.745 32.814-21.326 21.33-36.09 57.426-32.81 118.133 3.281 26.252 8.203 52.503 13.124 78.755 8.203 41.018 19.686 80.396 34.451 119.773 9.843 32.815 26.248 62.348 47.575 88.6 4.921 6.563 13.124 9.844 22.967 9.844 9.843-1.64 18.046-6.563 24.608-14.766 18.045-21.33 36.09-42.66 54.136-60.707-27.888-22.97-41.012-59.067-34.45-95.163 1.64-19.689 3.28-39.377 3.28-60.707 0-16.407-1.64-26.252-1.64-32.814v-1.641c0-34.456 6.562-68.91 18.046-101.726 8.202-22.97 21.326-44.3 39.372-62.347-27.889-9.845-57.418-14.767-86.947-16.408-4.922-1.64-8.203-1.64-11.484-1.64m387.16 223.14c1.641-26.253 6.563-42.66 6.563-60.708-8.203-1.64-14.765-1.64-22.968-1.64-13.124-1.641-26.248 3.28-37.731 11.484-8.203 8.204-8.203 26.252-4.922 47.582 6.562 22.97 14.765 44.3 26.248 63.988 4.922 9.845 9.843 18.048 13.124 26.252 3.281 4.922 6.562 11.485 8.203 16.407 1.64 3.282 3.28 8.204 6.562 9.845 6.562-16.408 9.843-32.815 8.202-49.222 1.641-19.69-3.28-42.66-3.28-63.989m-11.483-49.223c0 1.64 0 3.282-1.64 4.922-1.641 1.641-1.641 3.282-3.282 4.923-3.28 3.281-8.202 4.922-11.483 6.562-4.922 0-8.203 0-11.484-3.281-1.64-1.64-3.28-1.64-4.921-3.281-1.64 0-1.64-1.641-1.64-3.282 0-1.64 0-3.281 1.64-4.922l3.28-3.282c4.922-3.281 11.484-4.922 16.406-4.922h8.202c1.64 0 3.281 1.64 4.922 1.64v4.923"/><path fill="#326790" fill-rule="nonzero" d="M486.824 388.79c-1.641-11.486-8.208-21.331-19.7-26.254-4.924-1.64-9.85-1.64-14.774-1.64-6.567 0-11.492 1.64-18.059 1.64-11.491 3.282-22.983 8.205-34.474 13.127-3.284 1.641-6.567 4.923-9.85 8.204 0 4.923 1.641 14.768 1.641 29.536 0 21.332 0 42.663-3.283 62.353-8.208 44.304 21.341 85.326 65.666 93.53 3.284 0 4.925 0 8.209 1.641 3.283-9.845 8.208-21.331 9.85-32.817 9.85-29.536 34.474-54.15 14.774-149.32m-11.491 1.641-4.925 4.923c-3.283 3.281-8.208 4.922-13.133 3.281-4.925-1.64-8.209-3.281-11.492-8.204-1.642-1.64-3.283-3.282-3.283-4.923-3.284-3.281-3.284-4.922-3.284-6.563 0-3.282 3.284-4.923 6.567-6.564 3.283-1.64 6.567-1.64 8.208-1.64h4.925c4.925 0 8.209 1.64 11.492 4.922 1.641 1.641 3.283 1.641 4.925 3.282 1.641 1.64 1.641 3.282 1.641 6.563-1.641 1.641-1.641 3.282-1.641 4.923m251.174 203.468c-3.284 1.641-6.567 1.641-9.85 1.641-3.284 1.641-4.925 3.282-8.209 6.564-1.641 6.563-3.283 13.127-3.283 19.69 1.642 1.641 3.283 1.641 4.925 1.641 6.567 1.64 14.775 3.282 22.983 3.282 19.7 0 37.758-3.282 55.817-9.846 9.85-4.922 19.7-9.845 27.908-18.05-42.683 8.205-64.025 6.564-78.8 0-4.925-1.64-8.208-3.28-11.491-4.922m-241.324 3.282c-1.642 0-4.925 0-8.209 6.563-9.85 11.487-13.133 19.691-22.983 26.254-13.133 8.205-26.266 13.127-42.683 14.768-4.925 0-9.85 1.641-13.133 4.923l1.642 1.64c3.283 1.642 8.208 3.283 9.85 4.923 13.133 3.282 27.908 4.923 42.683 3.282 19.7-3.282 37.758-14.768 47.608-31.176 3.283-4.923 3.283-9.846 0-14.768-1.642-4.923-6.567-9.846-9.85-11.486 0-4.923-3.284-4.923-4.925-4.923"/></g></svg>
